packages/foundations/assets/icons/functional/images/communication/paper_plane.svg

<svg xmlns="http://www.w3.org/2000/svg" width="32" height="32" fill="none"><path fill="#1A1C1F" fill-rule="evenodd" d="M27.788 3.025c-.229.045-23.59 9.136-23.822 9.271-.318.185-.688.622-.825.973a2.1 2.1 0 0 0 .269 1.967c.376.496.423.517 5.087 2.259l4.377 1.635 1.634 4.373c.898 2.406 1.687 4.46 1.752 4.566.185.299.621.66.956.791.225.088.422.12.76.123.424.003.485-.01.864-.198.42-.208.707-.477.891-.838.155-.302 9.186-23.472 9.245-23.716.097-.405-.133-.924-.489-1.107a1.4 1.4 0 0 0-.699-.099m-9.192 8.912-5.217 5.218-4.157-1.551c-2.606-.972-4.131-1.567-4.089-1.595.057-.037 18.576-7.269 18.654-7.284.014-.003-2.322 2.343-5.191 5.212m6.587-3.524c-1.11 2.905-7.186 18.467-7.21 18.467-.019 0-.731-1.866-1.584-4.147l-1.55-4.146 5.207-5.214c2.864-2.867 5.213-5.213 5.22-5.213.008 0-.03.114-.083.253"/></svg>

<svg width="32" height="32" viewBox="0 0 32 32" fill="none" xmlns="http://www.w3.org/2000/svg"><path d="M27.788 3.025 C 27.559 3.070,4.198 12.161,3.966 12.296 C 3.648 12.481,3.278 12.918,3.141 13.269 C 2.892 13.909,2.999 14.693,3.410 15.236 C 3.786 15.732,3.833 15.753,8.497 17.495 L 12.874 19.130 14.508 23.503 C 15.406 25.909,16.195 27.963,16.260 28.069 C 16.445 28.368,16.881 28.729,17.216 28.860 C 17.441 28.948,17.638 28.980,17.976 28.983 C 18.400 28.986,18.461 28.973,18.840 28.785 C 19.260 28.577,19.547 28.308,19.731 27.947 C 19.886 27.645,28.917 4.475,28.976 4.231 C 29.073 3.826,28.843 3.307,28.487 3.124 C 28.319 3.039,27.971 2.989,27.788 3.025 M18.596 11.937 L 13.379 17.155 9.222 15.604 C 6.616 14.632,5.091 14.037,5.133 14.009 C 5.190 13.972,23.709 6.740,23.787 6.725 C 23.801 6.722,21.465 9.068,18.596 11.937 M25.183 8.413 C 24.073 11.318,17.997 26.880,17.973 26.880 C 17.954 26.880,17.242 25.014,16.389 22.733 L 14.839 18.587 20.046 13.373 C 22.910 10.506,25.259 8.160,25.266 8.160 C 25.274 8.160,25.236 8.274,25.183 8.413 " fill="#1A1C1F" stroke="none" fill-rule="evenodd"></path></svg>
